packages/ndla-icons/svg/common/Explanation.svg

<svg width="24" height="24" viewBox="0 0 24 24" fill="none" xmlns="http://www.w3.org/2000/svg" data-license="CC-BY 4.0" data-source="Labs AS">
  <path fill-rule="evenodd" clip-rule="evenodd" d="M15.5684 12.7643C16.0786 9.52209 19.736 9.29809 20.33 7.38366C20.6468 6.36261 20.2104 5.4868 19.1095 5.15513C18.2244 4.8885 17.38 5.09931 16.5428 5.59142L15.5506 3.92016C16.8154 3.11498 18.3267 2.73289 19.9025 3.20764C22.2339 3.91 23.5199 5.62324 22.8005 7.94184C21.9624 10.6434 18.2978 10.5861 17.7486 13.4211L15.5684 12.7643ZM14.0885 15.7842C14.3855 14.827 15.2941 14.3331 16.2007 14.6063C17.1074 14.8794 17.6019 15.796 17.3049 16.7532C17.0079 17.7104 16.0778 18.1978 15.1711 17.9246C14.2645 17.6515 13.7915 16.7414 14.0885 15.7842Z" fill="currentColor"/>
  <path fill-rule="evenodd" clip-rule="evenodd" d="M6.89269 16.1436C5.31809 12.3389 9.31428 9.85658 8.71623 7.43067C8.39726 6.13682 7.32115 5.46096 5.85323 5.77836C4.67316 6.0335 3.85623 6.77795 3.23414 7.82095L1 6.62888C1.89877 4.98662 3.35774 3.64908 5.45888 3.19479C8.56738 2.52272 11.1624 3.57998 11.8868 6.51805C12.7307 9.9413 8.5396 12.125 9.79973 15.5151L6.89269 16.1436ZM7.22079 20.303C6.92177 19.0901 7.62351 18.0014 8.83239 17.7401C10.0413 17.4787 11.2104 18.1628 11.5094 19.3758C11.8084 20.5888 11.0779 21.6837 9.86905 21.945C8.66017 22.2064 7.51982 21.516 7.22079 20.303Z" fill="currentColor"/>
</svg>

<svg xmlns="http://www.w3.org/2000/svg" fill="none" data-license="CC-BY 4.0" data-source="Labs AS" viewBox="0 0 24 24">
  <path fill="currentColor" fill-rule="evenodd" d="M15.6 12.8c.5-3.3 4.1-3.5 4.7-5.4.3-1 0-2-1.2-2.2-.9-.3-1.7-.1-2.6.4l-1-1.7a5.2 5.2 0 0 1 4.4-.7c2.3.7 3.6 2.4 2.9 4.7-.8 2.7-4.5 2.7-5 5.5l-2.2-.6Zm-1.5 3c.3-1 1.2-1.5 2.1-1.2 1 .3 1.4 1.2 1.1 2.2-.3 1-1.2 1.4-2.1 1.1-1-.2-1.4-1.2-1.1-2.1Zm-7.2.3C5.3 12.3 9.3 10 8.7 7.4c-.3-1.3-1.4-2-2.8-1.6a4 4 0 0 0-2.7 2L1 6.6c.9-1.6 2.4-3 4.5-3.4 3-.7 5.7.4 6.4 3.3.8 3.4-3.4 5.6-2.1 9l-3 .6Zm.3 4.2a2 2 0 0 1 1.6-2.6c1.2-.2 2.4.5 2.7 1.7a2 2 0 0 1-1.6 2.5c-1.2.3-2.4-.4-2.7-1.6Z" clip-rule="evenodd"/>
</svg>
